img/subtract-10.svg

<svg fill="none" height="25" viewBox="0 0 24 25" width="24" xmlns="http://www.w3.org/2000/svg"><path clip-rule="evenodd" d="m16.7623 18.7926c3.0071-.359 5.6254-2.2119 5.9545-3.9048.5185-2.667.4757-6.50822.4757-6.50822 0-5.20633-3.411-6.73239-3.411-6.73239-1.7199-.789921-4.6732-1.122105-7.7415-1.14719h-.0754c-3.06827.025085-6.01966.357269-7.73967 1.14719 0 0-3.411194 1.52606-3.411194 6.73239 0 .31563-.001631.64761-.003329.99321-.004717.95981-.00995 2.02461.017812 3.13611.123874 5.0915.933451 10.1095 5.640931 11.3555 2.17051.5745 4.03405.6947 5.53485.6122 2.7218-.1509 4.2496-.9713 4.2496-.9713l-.0897-1.9748s-1.945.6133-4.1293.5386c-2.16422-.0742-4.44891-.2334-4.79894-2.8905-.03232-.2334-.04848-.4829-.04848-.745 0 0 2.12448.5192 4.81682.6426 1.6464.0755 3.1903-.0965 4.7583-.2836zm2.4067-3.7053v-6.30396c0-1.28839-.3281-2.31223-.9869-3.0697-.6796-.75747-1.5695-1.14577-2.674-1.14577-1.2782 0-2.246.49123-2.8858 1.47382l-.6222 1.04284-.6221-1.04284c-.6399-.98259-1.60779-1.47382-2.88584-1.47382-1.10466 0-1.99453.3883-2.67403 1.14577-.65894.75747-.98698 1.78131-.98698 3.0697v6.30396h2.49752v-6.11867c0-1.28981.54269-1.94448 1.62821-1.94448 1.20022 0 1.80182.7766 1.80182 2.31223v3.34912h2.4828v-3.34912c0-1.53563.6016-2.31223 1.8018-2.31223 1.0855 0 1.6282.65467 1.6282 1.94448v6.11867z" fill="#000" fill-rule="evenodd"/></svg>

<svg width="24" height="25" viewBox="0 0 24 25" fill="none" xmlns="http://www.w3.org/2000/svg">
<path fill-rule="evenodd" clip-rule="evenodd" d="M16.7623 18.7926C19.7694 18.4336 22.3877 16.5807 22.7168 14.8878C23.2353 12.2208 23.1925 8.37958 23.1925 8.37958C23.1925 3.17325 19.7815 1.64719 19.7815 1.64719C18.0616 0.857269 15.1083 0.525085 12.04 0.5H11.9646C8.89633 0.525085 5.94494 0.857269 4.22493 1.64719C4.22493 1.64719 0.813736 3.17325 0.813736 8.37958C0.813736 8.69521 0.812105 9.02719 0.810407 9.37279C0.80569 10.3326 0.800457 11.3974 0.828219 12.5089C0.952093 17.6004 1.76167 22.6184 6.46915 23.8644C8.63966 24.4389 10.5032 24.5591 12.004 24.4766C14.7258 24.3257 16.2536 23.5053 16.2536 23.5053L16.1639 21.5305C16.1639 21.5305 14.2189 22.1438 12.0346 22.0691C9.87038 21.9949 7.58569 21.8357 7.23566 19.1786C7.20334 18.9452 7.18718 18.6957 7.18718 18.4336C7.18718 18.4336 9.31166 18.9528 12.004 19.0762C13.6504 19.1517 15.1943 18.9797 16.7623 18.7926ZM19.169 15.0873V8.78334C19.169 7.49495 18.8409 6.47111 18.1821 5.71364C17.5025 4.95617 16.6126 4.56787 15.5081 4.56787C14.2299 4.56787 13.2621 5.0591 12.6223 6.04169L12.0001 7.08453L11.378 6.04169C10.7381 5.0591 9.77021 4.56787 8.49216 4.56787C7.3875 4.56787 6.49763 4.95617 5.81813 5.71364C5.15919 6.47111 4.83115 7.49495 4.83115 8.78334V15.0873H7.32867V8.96863C7.32867 7.67882 7.87136 7.02415 8.95688 7.02415C10.1571 7.02415 10.7587 7.80075 10.7587 9.33638V12.6855H13.2415V9.33638C13.2415 7.80075 13.8431 7.02415 15.0433 7.02415C16.1288 7.02415 16.6715 7.67882 16.6715 8.96863V15.0873H19.169Z" fill="black"/>
</svg>
